X:1
T:Pass Me Not, O Gentle Savior
T:William Howard Doane, 1870
T:Pass Me Not, O Gentle Savior
T:Public Domain
T:Public Domain
C:William Howard Doane, 1870
Z:Public Domain
%%score ( 1 2 ) 3
L:1/8
M:4/4
K:Ab
V:1 treble 
V:2 treble 
V:3 bass 
V:1
 [Ec]3 [EB] [FA]>[=EG] [FA]>[DF] | [CE]4 [EA]4 | [EB]3 [EB] [EA]2 [EB]2 | [Ec]8 | %4
w: 1.~Pass me not, O gen- tle|Sav- ior,|Hear my hum- ble|cry;|
w: 2.~Let me at Thy throne of|mer- cy|Find a sweet re-|lief,|
w: 3.~Trust- ing on- ly in Thy|mer- it,|Would I seek Thy|face;|
w: 4.~Thou the Spring of all my|com- fort,|More than life to|me,|
 [Ec]3 [EB] [FA]>[=EG] [FA]>[DF] | [CE]4 [EA]4 | [EB]3 [EA] [Ec]2 [DB]2 | [CA]8 || %8
w: While on o- thers Thou art|call- ing,|Do not pass me|by.|
w: Kneel- ing there in deep con-|tri- tion;|Help my un- be-|lief.|
w: Heal my wound- ed, brok- en|spir- it,|Save me by Thy|grace.|
w: Whom have I on earth be-|side Thee?|Whom in heav’n but|Thee?|
"^Refrain" [Ae]4 [Ac]4 | (B3 A) [DF]4 | [CE]2 [CA]2 [Ec]2 [EA]2 | [EB]8 | %12
w: ||||
w: Sav- ior,|Sav- * ior,|my hum- ble cry;|While|
w: ||||
w: ||||
 [Ec]3 [EB] [FA]>[=EG] [FA]>[DF] | [CE]4 [EA]4 | [EB]3 [EA] [Ec]2 [DB]2 | [CA]8 |] %16
w: ||||
w: on o- thers Thou art call-|ing, Do|not pass me by.||
w: ||||
w: ||||
V:2
 x8 | x8 | x8 | x8 | x8 | x8 | x8 | x8 || x8 | F4 x4 | x8 | x8 | x8 | x8 | x8 | x8 |] %16
w: ||||||||||||||||
w: |||||||||Hear|||||||
V:3
 [A,,A,]3 [C,A,] [D,A,]>[D,A,] [D,D]>[D,A,] | [A,,A,]4 [A,,C]4 | [E,D]3 [E,D] [E,C]2 [E,G,]2 | %3
 [A,,A,]8 | [A,,A,]3 [C,A,] [D,A,]>[D,A,] [D,D]>[D,A,] | [A,,A,]4 [A,,C]4 | %6
 [E,D]3 [E,C] [E,A,]2 [E,G,]2 | [A,,A,]8 || [A,C]4 [A,E]4 | [D,D]4 [D,A,]4 | %10
 [A,,A,]2 [A,,A,]2 [A,,A,]2 [C,A,]2 | [E,G,]8 | [A,,A,]3 [C,A,] [D,A,]>[D,A,] [D,D]>[D,A,] | %13
 [A,,A,]4 [A,,C]4 | [E,D]3 [E,C] [E,A,]2 [E,G,]2 | [A,,A,]8 |] %16

